X:61
T:Yankee Doodle. LIT.061
M:2/4
Q:1/4=150
L:1/8
B:Wm. Litten MS, 1802
Z:Village Music Project 2017 Anne Wride
K:D
d2 ef | dc e2 | dd ef | d2 c2 | d2 ef | gf ed | cA Bc | d2 d2 :|
|: d2BG |  Bd c2 | AB AG | FG A2 | d2 BG | Bd c2 | AB cA | d2 d2 :|

